X:1
T:Buxtehude - Trio Sonata No.1 in F. {Professional production full score.}
%%score [ 1 2 3 ] { ( 4 6 8 ) | ( 5 7 ) }
L:1/8
Q:1/4=45
M:4/4
K:G
V:1 treble nm="Violino."
V:2 alto nm="Viola da gamba."
V:3 bass nm="Cembalo."
V:4 treble nm="Harpsichord"
V:6 treble 
V:8 treble 
V:5 bass 
V:7 bass 
V:1
"^Lento.""^S o n a t a  II."!mp! B4 z Bcd | c4 z ccc |!>(! cB TB>A!p! !fermata!B4!>)! || %3
"^Vivace."[Q:1/4=110] z/!f! G/d/d/ d/d/d/d/ dB e>e | ^cB/c/ AB/c/ d>=c Bb/a/ | %5
 g/a/b a>g fb/a/ a^g/f/ | ^gggg aa/=g/ gf/e/ | f=fea dd/c/ cB/A/ | Bb/a/ gg/f/ e/f/g Mf>e | %9
 dA/A/ d/d/A/A/ B/B/d/d/ e/e/B/B/ | ^c/c/e/e/ f/f/c/c/ d/d/f/f/ g/g/d/d/ | %11
 e/e/g/g/ a/a/e/e/ f/f/a/a/ b/b/f/f/ | g/g/b/b/ c'/c'/g/g/ a/a/c'/c'/ b/b/g/g/ | %13
 f/f/a/a/ g/g/e/e/ d/d/=f/f/ e/e/c/c/ | B/B/d/d/ c/c/e/e/ d/d/g/g/ e/e/a/a/ | %15
 f/f/a/a/ d/d/g/g/ e/e/c/c/ A/A/d/d/ | B/g/g/g/ f/g/e/f/ d/b/b/b/ a/b/g/a/ | %17
 f/g/a/g/ f/e/d/c/ B/A/G/F/ E/A/G/A/ | F>F E>E FD z/ d/d/d/ | d3 d (^c/d/e) d>c | %20
 B/^c/d c>B ^AAAA | BB/=A/ A^G/F/ GGGG | AA/=G/ GF/E/ Ff/e/ ff/^c/ | de/d/ dd/^c/ (B/c/d) c>B | %24
 A2 z ^c d z z ^d | e z z ^e f z z f | g z z ^g a z z ^a | bd eB ce db | ac Bg =fA Ge | %29
 d=F Ec- cB gc | ac- cB BA/G/ MG>F | G/b/b/b/ a/b/g/a/ f2 z2 | %32
 z/ a/a/a/ g/a/f/g/ (ef/4g/4a/) gf/e/ | f/d/a/a/ a/a/a/a/ af b>a | ^gf/g/ ef/g/ a>=g ff/e/ | %35
 d/e/f e>d ^cf/e/ e^d/c/ | ^dddd ee/=d/ d^c/B/ | ^c=c Be Aa/g/ gf/e/ | ff/e/ dd/^c/ BB/A/ A>^G | %39
 AE/E/ A/A/E/E/ F/F/A/A/ B/B/F/F/ | ^G/G/B/B/ ^c/c/G/G/ A/A/c/c/ d/d/A/A/ | %41
 B/B/d/d/ e/e/B/B/ ^c/c/e/e/ f/f/c/c/ | d/d/f/f/ g/g/d/d/ e/e/g/g/ f/f/d/d/ | %43
 ^c/c/e/e/ d/d/B/B/ A/A/=c/c/ B/B/G/G/ | F/F/A/A/ G/G/B/B/ A/A/d/d/ B/B/e/e/ | %45
 ^c/c/e/e/ A/A/d/A/ B/b/b/b/ a/b/g/a/ | f/d/d/d/ B/c/A/B/ G/e/e/e/ d/e/c/d/ | %47
 B/g/g/g/ f/g/e/f/ d/B/B/B/ A/B/G/A/ | F2 z/ G/B/G/ E/e/d/e/ A/c/B/A/ | B z z2 z2 z/ g/g/g/ | %50
 g3 g f/g/a g>f | (e/f/g) f>e ^dddd | ee/=d/ d^c/B/ cccc | dd/=c/ cB/A/ Bb/a/ bb/f/ | %54
 gg/f/ f>e ^d f2 e/d/ | e2 z ^G A z z ^A | B z z B ^c z z c | d z z ^d e z z ^e | f z z f gB Af | %59
 eG Fd =cE DB | AC B,G- GF dG | eG- GF- F/E/D/E/ FG | ^A,B,/^C/ DC B,/B/B/B/ =A/B/G/A/ | %63
 F2 z2 z/ A/A/A/ G/A/F/G/ | EF ME>D D2 z2 | z/ E/E/E/ D/E/C/D/ B,2 z2 | z/ d/d/d/ c/d/B/c/ ABMA>G | %67
 G/B/B/B/ A/B/G/A/ F/D/ z z2 | z/[Q:1/4=100] d/d/d/[Q:1/4=90] c/d/[Q:1/4=80]B/c/ ABMA>G | %69
 G2 z2 z4 ||[Q:1/4=60]"^Adagio." z4!mp! B4- | B4 MA4 | !fermata!B8 | z4 A4- | A2 G2 G4 | z4 B4- | %76
 B2 EA G3 MF | E2 FG TF3 E |[Q:1/4=110] !fermata!^D8 || %79
[M:6/8]"^Allegro."!f! G/B/e/B/G/B/ G/B/e/B/G/B/ | G/B/e/B/G/B/ G/B/e/B/G/B/ | B>B,B BA/^G/A- | %82
 AB/A/G/F/ GEB/A/ |!p! G/B/e/B/G/B/ G/B/e/B/G/B/ |!p! G/B/e/B/G/B/ G/B/e/B/G/B/ | B>B,B BA/^G/A- | %86
 AB/A/G/F/ G!f!Ee- | e/d/c/B/A/G/ FDd- | d/c/B/A/G/F/ E/G/A/B/c- | cd/c/B B/A/ A>c | B>ed g^c>B | %91
 ^AFf d>gf | ed^c d/e/ Mc2 | B3 z B/=c/A/B/ | G/B/e/B/G/B/ G/B/e/B/G/B/ | %95
 G/B/e/B/G/B/ G/B/e/B/G/B/ | B>B,B BA/^G/A- | AB/A/=G/F/ GEB/A/ |!p!!p! G/B/e/B/G/B/ G/B/e/B/G/B/ | %99
 G/B/e/B/G/B/ G/B/e/B/G/B/ | B>B,B BA/^G/A- | AB/A/G/F/ GEe/d/ |!f! c/B/A/G/F/E/ ^DB/c/B | %103
[Q:1/4=60] A/G<MFE/ !fermata!E3 ||[M:4/4]"^Largo." z8 | z8 |!mp! MB3 c A4- | A2 G4 F2- | %108
 F2 E4 P^D2 | E2 c4 MBA | B6 P^c2 | !fermata!d8 ||!f![Q:1/4=100]"^Arioso." z B e3 A d2- | %113
 dc/B/ A>d B>A G2 | z g/f/ e>d ^c2 de | f>g e>a f>e d2 | z2 ^d>d eB B2 | z e/4f/4g/ f>e b2 z B | %118
 B>c d>B cede | AB/c/ MB>A G2 z2 | z/ b/g/a/ b/B/c/B/ A/a/f/g/ a/A/B/A/ | %121
 G/B/e/d/ c/B/A/c/ Bd/c/ B/c/A/B/ | Gc/A/ Be/d/ ^c>e a/b/a/g/ | f/a/g/f/ e/g/f/e/ f/a/f/g/ a2 | %124
 z/ d/B/c/ d2 z/ e/d/c/ B/d/e/f/ | g/a/b/c'/ f/g/e/f/ ^d/f/g/a/ b2 | %126
 z/ e/B/^c/ d/e/d/e/ =c/a/e/f/ g/a/g/a/ | f/d/A/B/ c/d/c/d/ B/d/G/B/ D/d/c/d/ | %128
 B/c/d/B/ e2- e/d/e/c/ d2- | d/G/c/B/ A/G/A/c/ B/c/B/A/ G/d/e/f/ | %130
 g/e/d/c/ B/d/e/d/ ^c/e/f/g/ a/c/d/e/ | f/F/G/A/ B/E/F/G/ F/A/B/c/ d/F/G/A/ | %132
 B/f/g/a/ b/d/e/f/ g/D/E/F/ G3/2A/4B/4 | c/d/c/B/ MB>A B/g/f/e/ ^d/f/g/a/ | %134
 b2 ab z/ e/e/f/ g/a/g/e/ | ff/g/ Mg>f g3/2f/4e/4 d/e/c/d/ | BdBG A3 F | G2 z A B/c/d/c/ B/c/B/A/ | %138
 Gb/a/ g>f eA B>^c | d2 Md>^c d2 z2 | z2 f>f Be Me>f | g>g a>a ^d>e f2 | z BAB Ec BA/G/ | %143
 FG/A/ MG>F G/D/E/F/ G/A/B/c/ | B/c/A/c/ B/A/B/G/ A/B/G/B/ A/G/A/F/ | %145
 G/A/F/A/ G/B/A/c/ B z z/ B/A/B/ | G/e/d/c/ B/e/d/e/ ^c/d/e/E/ A/B/G/A/ | %147
 F/a/g/f/ e/g/f/e/ f/e/f/g/ f/g/a/A/ | d/^c/d/e/ d/e/f/F/ B/d/c/d/ B/c/A/B/ | %149
 G/A/B/c/ MB>A B/c/B/A/ B2 | B e2 e/d/ (dc) (cB) | BB/e/ A>G G2 z2 | B e2 e/d/ (dc) (cB) | %153
[Q:1/4=90] B[Q:1/4=80]B/e/[Q:1/4=70] MA>G !fermata!G4 |] %154
V:2
!mp! G4 z GAB | A4 z AAA |!>(! AG TG>F!p! !breath!!fermata!G4!>)! || %3
[K:bass] z4 z2 z/!f! G,/G,/G,/ | G,3 G, F,/G,/A, G,>F, | E,/F,/G, F,>E, ^D,D, D,D, | %6
 E,E,/C,/ D,^C,/B,,/ C,C, C,C, | D,D,/=C,/ C,B,,/A,,/ B,,B,/A,/ A,^G,/F,/ | %8
 G,G,/F,/ E,E,/D,/ G,G,/E,/ A,A,, | D,2 z F, G, z z ^G, | A, z z ^A, B, z z B, | %11
 C z z ^C D z z ^D | EG,A,E, F,D, G,E, | D,F, E,G, B,B,, C,E, | G,G,, A,,C, B,,E, C,A,, | %15
 D,A,, B,,B, CA, DD, | G,G,, z2 z/ D/D/D/ C/D/B,/C/ | A,/G,/F,/E,/ D,/E,/F,/D,/ G,E, A,>A,, | %18
 z/ D,/A,/A,/ A,/A,/A,/A,/ A,F, B,>A, | ^G,F,/G,/ E,F,/G,/ A,>=G, F,[K:alto]F/E/ | %20
 D/E/F E>D ^CF/E/ E^D/C/ | ^DDDD EE/=D/ D^C/B,/ | ^CCCC DD/^C/ DD/A,/ | B,^C B,>A, DD/B,/ EE, | %24
[K:bass] A,A,,/A,,/ D,/D,/A,,/A,,/ B,,/B,,/D,/D,/ E,/E,/B,,/B,,/ | %25
 ^C,/C,/E,/E,/ F,/F,/C,/C,/ D,/D,/F,/F,/ G,/G,/D,/D,/ | %26
 E,/E,/G,/G,/ A,/A,/E,/E,/ F,/F,/A,/A,/ B,/B,/F,/F,/ | %27
 G,/G,/B,/B,/ C/C/G,/G,/ A,/A,/C/C/ B,/B,/G,/G,/ | %28
 F,/F,/A,/A,/ G,/G,/E,/E,/ D,/D,/=F,/F,/ E,/E,/C,/C,/ | %29
 B,,/B,,/D,/D,/ C,/C,/E,/E,/ D,/D,/G,/G,/ E,/E,/A,/A,/ | %30
 F,/F,/A,/A,/ D,/D,/G,/G,/ B,,/B,,/^C,/C,/ D,/D,/D,/D,/ | %31
 G,,2 z2 z/ B,,/B,,/B,,/ A,,/B,,/G,,/A,,/ | F,,/F,/F,/F,/ E,/F,/D, A,A,, B,,^C, | %33
 D,2 z2[K:alto] z2 z/ D/D/D/ | D3 D (^C/D/E) D>C | (B,/^C/D) C>B, ^A,A,A,A, | %36
 B,B,/=A,/ A,^G,/F,/ G,G,G,G, | A,A,/=G,/ G,F,/E,/ F,F,/E,/ E,D,/^C,/ | D,A/G/ FF/E/ DD/^C/ B,2 | %39
 ^C2[K:bass] z ^C, D, z z ^D, | E, z z ^E, F, z z F, | G, z z ^G, A, z z ^A, | %42
 B,D, E,B,, ^C,A,, D,B,, | A,,^C, B,,D, F,F,,G,,B,, | D,D,,E,,G,, F,,[K:alto] A2 G- | %45
 G G2 F- FE/D/ MD>^C | D2 z2 z4 | z/ B,/B,/B,/ A,/B,/G,/A,/ F,/D/D/D/ C/D/B,/C/ | %48
 A,/D/C/D/ G,2[K:bass] z/ C/B,/C/ F,/A,/G,/F,/ | G,/G,,/D,/D,/ D,/D,/D,/D,/ D,B,, E,>D, | %50
 ^C,B,,/C,/ A,,B,,/C,/ D,>=C, B,,B,/A,/ | G,/A,/B, A,>G, F,B,/A,/ A,^G,/F,/ | %52
 ^G,G,G,G, A,A,/=G,/ G,F,/E,/ | F,F,F,F, G,[K:alto] G/F/ GG/^D/ | E[K:bass] E, A,F, B,A,B,>B,, | %55
 E,,[K:alto]E,/E,/ A,/A,/E,/E,/ F,/F,/A,/A,/ B,/B,/F,/F,/ | %56
 ^G,/G,/B,/B,/ ^C/C/G,/G,/ A,/A,/C/C/ D/D/A,/A,/ | B,/B,/D/D/ E/E/B,/B,/ ^C/C/E/E/ F/F/C/C/ | %58
 D/D/F/F/ G/G/D/D/ E/E/G/G/ F/F/D/D/ | ^C/C/E/E/ D/D/B,/B,/ A,/A,/=C/C/ B,/B,/G,/G,/ | %60
 F,/F,/A,/A,/ G,/G,/B,/B,/ A,/A,/D/D/ B,/B,/E/E/ | %61
 ^C/C/E/E/ A,/A,/D/D/ ^A,/A,/B,/B,/ D,/D,/E,/E,/ | F,/F,/G,/G,/ E,/E,/F,/F,/ B,,2 z2 | %63
 z/ B,/B,/B,/ A,/B,/G,/A,/ F,/F/F/F/ E/F/D/E/ | CD MD>^C D/D/D/D/ B,/=C/A,/B,/ | %65
 G,>B, A,>F,[K:bass] G,/E,/E,/E,/ D,/E,/C,/D,/ | B,,/[K:alto] B/B/B/ A/B/G/A/ FGMG>F | %67
 G/G,/G,/G,/ F,/G,/E,/F,/ D,[K:bass] z/ E,/ D,/E,/C,/D,/ | B,,>B,, C,>C, D,C, D,2 | G,,2 z2 z4 || %70
[K:alto] z4!mp! G4 | E8 | !fermata!^D8 | z4 F4- | F2 B,2 E4 | z2 E4 D2 | ^C2 =C2 z2 B,2- | %77
 B,2 A,G, A,4 | !fermata!B,8 ||[M:6/8] z6 | z2 z!f! z2 G | F2 F E2 E | E>F^D E2 z | %83
!p! E z z E z z | E z z E z G | F2 F E2 E | E>F^D E"^Forte"!f!G/=F/E/D/ | %87
 C/D/E/D/C/B,/ A,/G,/F,/A,/B,/C/ | B,/C/D/C/B,/A,/ G,/E,/F,/G,/A,/G,/ | F,D,G,- G,MG,>F, | %90
 G,2 z z GE- | ED^C DB,A, |[K:bass] G,F,E, E,F,>F,, | B,,B,/C/A,/B,/ G,G,/A,/F,/G,/ | %94
 E,2 z[K:alto] E z z | E z z E z G | F2 F E2 E | E>F^D E2 z |!p! E z z E z z | E z z E z G | %100
 F2 F E2 E | E>F^D E>=DC/B,/ |!f! A,/G,/A,/B,/C/A,/ B,>A,G, | F,/E,/B,B,, !fermata!E,3 || %104
[M:4/4] z8 |!mp! PB3 c A4- | A2 G4 F2- | F2 E4 ^D2 | G3 A F4 | G4 A4- | A2 MGF TG4 | !fermata!F8 || %112
!f! z DB,G, A,3 F, | G,2 z A, B,/C/D/C/ B,/C/B,/A,/ | G,B/A/ G>F EA,B,^C | D2 MD>^C D2 z2 | %116
 z2 F>F B,E E>F | G>G A>A ^D>E F2 | z B,A,B, E,C B,A,/G,/ | F,G,/A,/ MG,>F, G,2 z2 | %120
[K:bass] G,2 z/ G,/E,/G,/ F,2 z/ F,/D,/F,/ | E,/D,/C,/B,,/ A,,/D,/C,/D,/ G,,B,/A,/ G,/A,/F,/G,/ | %122
 E,E,/F,/ G,/F,/G,/E,/ A,/B,/A,/G,/ F,/G,/F,/E,/ | D,/C,/B,,/A,,/ B,,/G,,/A,, D,,2 z/ E,/D,/C,/ | %124
 B,, z z/ C/B,/A,/ G, z z/ A,/G,/F,/ | E,/F,/G,/A,/ B,>A, B,B,,/C,/ B,,/C,/B,,/A,,/ | %126
 ^G,,^G, A,B, E,A,/A,,/ B,,^C, | D,F,/G,/ A,>D,, G,,2 z2 | G,2- G,/F,/G,/E,/ F,2- F,/E,/F,/D,/ | %129
 E,>G, F,/E,/F,/A,/ G,G,,[K:alto] z/ B,/^C/D/ | E/G/F/E/ D/B,/G/F/ E/^C/D/E/ F/A,/B,/C/ | %131
 DD MD>^C D2 z/ A,/B,/=C/ | D/D/E/F/ G/F/G/A/ BB,/C/ B,/A,/G,/F,/ | %133
 E,>G F/G/F/E/ ^D/E/D/E/ F/D/E/F/ | E/B,/B,/^C/ D/E/D/B,/ =CCDE | z/ A,/A,/B,/ C/D/C/A,/ B,2 z2 | %136
 z B, E3 A, D2- | DC/B,/ A,>D B,>A, G,2 | z G/F/ E>D ^C2 D>E | F>G E>A F>E D2 | z2 ^D>D EB, B,2 | %141
 z E/4F/4G/ F>E B2 z B, | B,>C D>B, CE DE | A,B,/C/ B,>A, G,2 z2 | %144
[K:bass] G,/A,/F,/A,/ G,/F,/G,/E,/ F,/G,/E,/G,/ F,/E,/F,/D,/ | %145
 E,/F,/D,/F,/ E,/G,/F,/A,/ G,/B,/A,/C/ B,/G,/F,/G,/ | %146
 E,/G,/F,/A,/ G,/F,/G,/E,/ A,/B,/G,/A,/ F,/G,/E,/F,/ | %147
 D,/C,/B,,/A,,/ G,,/B,,/A,, D,,D,/E,/ D,/E,/D,/C,/ | %148
 B,,B,/C/ B,/C/B,/A,/ G,/B,/A,/B,/ G,/A,/F,/G,/ | %149
 E,/F,/G,/E,/ D,/E,/D,/C,/ B,,/A,,/B,,/C,/ B,,/C,/A,,/B,,/ | %150
 ^G,,/F,,/G,,/E,,/ F,,/A,,/G,,/B,,/ A,, A,2 =G, | %151
 F,/D,/G,/^C,/ D,/C,/D,/D,,/ G,,G,/A,/ B,/=C/A,/B,/ | G,/F,/E,/G,/ F,/E,/F,/B,,/ E,A,,/A,/- A,G, | %153
 F,/D,/G,/^C,/ D,D,, !fermata!G,,4 |] %154
V:3
!mp! G,4"^5          6\n3          4" G,4 |"^4\n2" G,2 F,E,"^5" F,4 | %2
"^9                         8\n4                         3"!p!!>(! !fermata!G,8!>)! || %3
 z!f! G,"^6"F,D,"^(6)" B,,G,, z G, |"^4#\n2" G,2 z"^6\n3" G,"^6 5" F,2 G,>F, | %5
 E,"^6"G,"^6" F,>E,"^6         5" ^D,3 D, |"^#" E,2"^6\n4#" =D,2"^6" ^C,3"^5" C, | %7
 D,2"^6" =C,2"^6#" B,,2"^6" C,D, | G,,G,/F,/"^6" E,>D,"^6\n5" G,G,/"^7"E,/"^6\n4" A,"^5\n#"A,, | %9
 D,2 z"^6" F, G, z z"^6" ^G, |"^(#)" A, z z"^6" ^A, B, z z"^6" B, | C z z"^6" ^C D z z"^6" ^D | %12
 E"^6"G, A,"^6"E,"^5" F,"^7"D, G,"^6"E, | D,F,"^6" E,"^6"G,"^(6)" B,"^6"B,, C,"^6"E, | %14
 G,G,, A,,C, B,,E,"^6" C,"^6"A,, |"^7" D,A,,"^6" B,,B, C"^7"A,"^4" D"^3"D, | %16
 G,G,,"^6 5" A,,2"^(6)" B,,2"^6     5" C,2 | D,3 D,"^7" G,E,"^4" A,"^#"A,, | %18
 D, z"^6" ^C, z D,>C, B,,B,/A,/ |"^5" ^G, z"^7\n#" E, z"^#" A,>=G,"^6" F,D, | %20
 G,"^6"D,"^6#   5" E,2"^#" F,F,, z"^#" F, |"^#" B,,2 z"^#" B,,"^#" E,,2 z"^#" E, | %22
"^#" A,,2 z"^#" A,, D,,2 D>"^6"A, | B,"^6"^C"^6" B,>"^#"A,"^6" D"^7"B,"^4" E"^5\n#"E, | %24
"^#" A,A,, D,"^6\n#"A,, B,,"^6"D, E,"^#"B,, |"^6" ^C,E, F,"^#"C, D,"^6"F, G,"^6"D, | %26
 E,"^6"G, A,"^#"E, F,"^6"A, B,"^#"F, | G,"^6"B, CG, A,"^6"C"^6" B,G, | %28
 F,"^6"A, G,"^6"E,"^" D,"^6"F,"^6" E,"^6"C, |"^6" B,,"^6"D,"^6" C,"^6"E,"^7" D,G, E,A, | %30
"^6" F,A,"^7" D,G,"^6" B,,"^6 5"^C,"^4     3" D,2 | G,,G,"^6" F,E,"^#" B,B,,"^6\n4" A,,"^8\n6"G,, | %32
 F,,F, E,D,"^#" A,A,,"^6" B,,^C, | D,>D"^6" ^CA,"^6" F,D, z D |"^4#" D2 z"^3" D"^6" ^C2 D>C | %35
 B,"^6"D"^6" ^C>B,"^6     5" ^A,3 A, |"^#" B,2"^6\n4#" A,2"^6" [^G,B,]3"^5" G, | %37
"^#    " A,2"^6" G,2"^7    6" F,2"^7   6(#)" E,2 | D,3 B,,/^C,/"^6" D,B,,"^4#" E,2 | %39
 A,,2 z"^6" ^C, D, z z"^6" ^D, |"^#" E, z z"^6(#)" ^E, F, z z"^6" F, | %41
 G, z z"^6" ^G, A, z z"^6" ^A, | B,"^6"D, E,"^(6)"B,,"^6" ^C,A,,"^6" D,B,, | %43
"^#" A,, z B,, z"^6" F,, z G,, z | D,, z E,, z"^6" F,, z"^9 8" G,, z | %45
"^6 (#)" E,, z"^9     8" F,, z"^7     6" G,, z"^5     #\n4" A,, z | %46
 D,, z G,, z E,, z"^6     5" F,, z | G,, z"^6     5" A,, z B,, z"^6     5" C, z | %48
 D, z E, z C, z D, z | z G,,"^6"F,,D,, D,B,, E,>D, |"^6\n5" ^C, z"^#\n7" A,, z D,>=C,"^6" B,,G,, | %51
 C,G,,"^6   5" A,,2"^#" B,,2 z"^#" B,, |"^#" E,,2 z"^#" E,"^#" A,,2 z"^#" A,, | %53
 D,,2 z D, G,,2[K:alto] E>"^6"^D | EE,"^6" A,F,"^#" B,"^6\n5"A,"^5   #\n4" B,2 | %55
 z"^#" E,"^#"A,E, F,"^(6)"A,B,"^#"F, | ^G,"^(6)"B, ^C"^6"G, A,"^6"C D"^6"A, | %57
 B,"^6"D E"^#"B, ^CE F"^#"C | D"^6"F G"^6"D E"^6"G"^6" F"^6"D | ^CE D"^6#"B, A,"^6""^6"C"^6" B,G, | %60
 F,"^6"A, G,"^6"B,"^7" A,D B,E |"^7\n5" ^CE"^7" A,D"^6\n#" ^A,B,[K:bass]"^6" D,E, | %62
"^7\n#" F,G,"^7\n5" E,"^5\n#"F, B,,2 z2 | z B,"^6""^6"A,"^6"G,"^6" F,D,"^6" G,"^7"E, | %64
"^#" A,"^7\n5"G,"^4" A,"^#"A,, D,"^6"F,G,"^6"F, | E,"^6"G,"^6" F,"^7"D, z E,"^6"D,"^6"C, | %66
"^(6)" B,,G,,"^6" C,"^7\n5"A,, D,"^7\n5"C,"^4" D,"^3"D,, | %67
 G,,G,"^6" F,"^6#"E, D,"^7\n5"E,"^8\n6" D,C, |"^7   6" B,,2"^6    5" C,2 D,"^7\n5"C,"^4  3" D,2 | %69
 G,,2 z2 z4 || z4!mp! G,4 |"_7        6" C8 |"_#" !fermata!B,8 | z4"^6        9\n5        4" ^D,4 | %74
"_8\n3" E,8 |"^6" G,,4"^6  5" ^G,,4 |"^9     8\n#      " A,,4"^6     5\n4     #" B,,4 | %77
"_7      6" C,8 |"_#" !breath!!fermata!B,,8 ||[M:6/8]"^Forte" z6 | z2 z!f! z2 E, | %81
"^6" ^D,2"^6" =D,"^7     6" ^C,2"^6" =C, |"^7\n4" B,,2"_6 5\n#" B,, E,,2 z | %83
"^Piano"!p! E, z z E, z z | E, z z E, z E, |"^6" ^D,2"^6" =D,"^7    6" ^C,2"^6" =C, | %86
"^7       6\n4" B,,2"^5\n#" B,, E,,!f!E,/D,/C,/B,,/ | A,,>B,,"^6 5"C, D,>C,B,,/A,,/ | %88
 G,,>A,,"^6 5"B,, C,>B,,A,, |"^7" D,B,,E,"^7\n5" C,"^4     3" D,2 | %90
 G,,G,"^6"F,"^6(#)" E,>F,"^6"G, |"^7     6\n#     (4)" F,2"^6" ^A,, B,,B,"^6"=A, | %92
"^6\n3" G,"^6\n4"F,"^6#\n5"E,-"^7\n5" E,"^5    #\n4" F,2 | B,,B,A, G,2 F, | E,2 z E, z z | %95
 E, z z E, z E, |"^6" ^D,2"^6" =D,"^7     6" ^C,2"^6" =C, |"^7\n4" B,,2"_6 5\n#" B,, E,,2 z | %98
"^Piano"!p! E, z z E, z z | E, z z E, z E, |"^6" ^D,2"^6" =D,"^7 6" ^C,2"^6" =C, | %101
"^7\n4" B,,2"_6 5\n#" B,, E,,EC |"^Forte"!f! A,>B,C"^#" B,>A,"^6"G, | %103
"^6#" F,/E,/"^4" B,"^#"B,, !breath!!fermata!E,3 ||[M:4/4]!mp! MB,3"^6" C"^6  5" A,4- | %105
"^4#\n2" A,2"^6\n3" G,2-"^4#\n2" G,2"^(6)" F,2- |"^4\n3" F,2"^5  6" E,2"^4\n3" E,2"^5\n3" ^D,2 | %107
"^9    8\n4    3" E,4"^6    #\n4" B,,4 | z8 |"^5 6" E,4"^6\n5" F,4 |"^9    8" G,4"^5     6#" E,4 | %111
 !fermata!D,8 ||!f!"^6" A,3 E,"^7         6" F,3 D, |"^7 6" E,2"^5" F,2 G,3 F, | %114
 E,>F,"^6"G,E,"^#" A,>G,"^6\n4"F,"^8\n6#"E, | D,B,,"^6\n5" G,,"^#"A,, D,,D,MD,>C, | %116
 B,,B,"^#"B,>A,"^6" G,>A, G,>F, | E,>E, D,>"^6"C,"^#" B,,>C,"^#" B,,>A,, | %118
"^6" ^G,,2"^6" F,,G,, A,,2"^6" B,,^C, | D,3 D, G,,G,"^6" B,"^6"A, | %120
!f!"^Variat. 2." A,3 E,"^7         6" F,3 D, |"^7     6" E,2"^5" F,2 G,3 F, | %122
 E,>F,"^(6)" G,>E,"^#" A,>G, F,>E, | D,"^6"B,,"^6\n5" G,,"^#"A,, D,,D, MD,>C, | %124
 B,,B,"^6""^6" B,>"^6"A, G,>"^6"A, G,>F, | %125
"^6" E,>"^6"E,"^6" D,>"^6"C,"^#" B,,>"^6""^6"C,"^#" B,,>A,, | %126
"^6" ^G,,2"^6" F,,G,,"^5    6" A,,2"^6" B,,^C, |"^3     4" D,3"^8" D, G,,G,"^6" B,"^6"A, | %128
"^Variat. 3.""^6" A,3 E,"^7      6" F,3 D, |"^7    6" E,2"^5" F,2 G,3 F, | %130
 E,>F,"^6" G,>E,"^#" A,>G,"^6\n4" F,>"^8\n6#"E, | D,"^6"B,,"^6\n5" G,,"^#"A,, D,,D, MD,>=C, | %132
 B,,B,"^(#?)" B,>A,"^6" G,>A, G,>F, |"^(6)" E,>E, D,>"^6"C,"^#" B,,>C, B,,>A,, | %134
"^6" ^G,,2"^6" F,,G,,"^5    6" A,,2"^6" B,,^C, |"^3          4" D,3"^3" D, G,,G,"^6" B,"^6"A, | %136
!f!"^Variat. 4." A,3 E,"^7         6" F,3 D, |"^7     6" E,2"^5" F,2 G,3 F, | %138
 E,>F,"^6" G,E,"^#" A,>G,"^6\n4" F,>"^8\n6#"E, | D,B,,"^6\n5"G,,"^#"A,, D,,D, MD,>C, | %140
 B,,B,"^#" B,>A,"^6" G,>A,"^6" G,>F, | E,>E, D,>"^6"C,"^#" B,,>C,"^#" B,,>A,, | %142
"^6" ^G,,2"^6" F,,G,, A,,2"^6" B,,^C, |"^3        4 4" D,3"^3" D, G,,G,"^6" B,"^6"A, | %144
"^Variat.5." G,"^6"F, G,E,"^7" F,E,"^6" F,D, |"^7" E,D,"^6"E,F, G,A,G,F, | %146
 E,F,G,E,"^#" A,G,"^(6)"F,"^6#"E, | D,B,,"^6\n5"G,,"^#"A,, D,,D, MD,>=C, | B,,B, MB,>A, G,A,G,F, | %149
 E,E,"^6" D,>"^6"C,"^#" B,,>C, B,,>A,, | %150
"^6" ^G,,E,,"^7" F,,"^5 "^G,,"^4    3" A,,2"^9\n7" B,,"^7\n5"^C, | %151
"^6\n3" D,"^7\n5"^C,"^4     3" D,2 G,,G,"^6" B,"^6"A, | %152
 G,E,"^7" F,"^7"B,,"^7" E,A,,"^9\n7" B,,"^7\n5"^C, | %153
"^6\n3" D,"^6\n5"^C,"^5   3\n4" D,2 !fermata!G,,4 |] %154
V:4
"^Lento."!mp! [DB]4- [DB]2 [Ec]2 | [CA]8- |!>(! A2 D2!p! !fermata![B,G]4!>)! || %3
"^Vivace." z!f! B AF GB z [DB] | A2 z [B,E] [DA]=C B,B/A/ | Be d>c B2 A2 | ^G4 A2 =G2 | %7
 F=F EA ^G2 A^F | B2 c>d d2- d^c | [Fd]2 z [A,D] [B,D] z z [B,E] | [^CE] z z [CF] [DF] z z [DG] | %11
 [EG] z z [EA] [FA] z z [FB] | B2 c4 Bc | d2 ce d2 c2 | [DB]2 [CE]2 G2 Ac- | c2 B/c/d ec AB/c/ | %16
 B2 c2 dG AG | [DF][EG] AB/c/ BB/d/ d^c | [Fd] z [EA] z F2 Fd/c/ | [DB] z [D^G] z AE [DA][FA] | %20
 [DB][FB] ^cB ^A2 z [CA]/c/ | [^DB]2 z [DF] [B,^G]2 z [EG]/B/ | %22
 [E^c]2 z [CE] [DF]/[EG]/[FA] AB/c/ | dA ^G>^c BA/d/ cB | ^c2 A2 F B/c/ B2 | %25
 A ^c/d/ c2 A d/e/ dB- | B e/f/ e2 c f/g/ f2 | d2 eB cA GB | c2 Bc BdcA | %29
 GB [EA][Gc-] [^Fc][GB]- [GB][Ec] | dc- cB BA/G/- GF | [B,DG]2 [DA][EG] [^DF]2 [DF][B,E] | %32
 CA GF E2 G2 | F2 A^c df z [Fd] | [E^GB]2 z [FB] A4 | d2 A2 ^c4 | B4- B4 | A2 [B,E-B]2 A2 G2 | %38
 F4 B2 A^G | [^CEA]2 z [A,EA] [A,DF] z z [B,FB] | [B,E^G] z z [^CGc] [CFA] z z [DAd] | %41
 [DGB] z z [EBe] [EA^c] z z [Fcf] | dB- BG A2 B2 | [E^c] z [DFd] z [DA] z [DB] z | %44
 [FA] z [EG] z [DA] z AG- | [^CG] z GF- FE D^C | D z D z E z DC | B, z FE D z AG | %48
 [DF] z [B,G] z [EG] z [DF] z | z B,DF- F2 G2 | [EG] z [^CG] z [DF]2 [G,DG]2 | %51
 [CE][B,G] FE [B,^D]2 z [B,DF] | [B,E^G]2 z [B,EG] [^CEA]2 z [A,CE] | %53
 [A,DF]2 z [A,DF] [B,DG]2 [GB]>[FB] | B2 cA F4 | z B^cB AF/=G/ F2 | D ^G/A/ G2 E A/B/ A2 | %57
 F B/^c/ B2 ^G ^c/d/ c2 | A d/e/ d2 BedB | A2 [FA][D^G] A2 =GB | c2 Bd cA B2- | BA ^cd c B3 | %62
 ^AB- BA [DB]2 z2 | z [DF] [=CF][B,E] DF ED | ^C[D-F] E2 FABA | [EG][Be][Ad][Fc] z [GB] [FB][EA] | %66
 GB AG FG- GF | Gd d^c d4- | d2 c2 AB A2 | [B,G]2 z2 z4 ||"^Adagio." z4!mp! B4- | B4 MA4 | %72
 !fermata![^DFB]8 | z4 A4- | A2 G2 G4 | [EB]4 [EB]4- | B2 A2 [EG]2 [^DF]2 | E4 E2 A2 | %78
 !fermata![^DF]8 ||[M:6/8]"^Allegro." z6 | z2 z!f! z2 [GB] | [FB]2 [FB] BAA- | A2 G/F/ E2 z | %83
!p! [B,EG] z z [B,EG] z z | [B,EG] z z [B,EG] z [B,G] | [B,F]2 [B,F] E2 [EA]- | %86
 [EA]2 [^DG]/F/ E>[B,G][CA]/[DB]/ | c2 A/G/ F>FG/A/ | B2 G/F/ E2 [Ec] | cdB- B A2 | %90
 B2 [Ad] [G^c]2 [EB] | ^AB^c d2 [CF] | ED^C D C2 | [B,^D]3 [B,E]2 [A,D] | E z z [B,EG] z z | %95
 [B,EG] z z [B,EG] z [EGB] | [FB]2 [FB] BAA | A2 G/F/ E2 z |!p! [B,EG] z z [B,EG] z z | %99
 [B,EG] z z [B,EG] z [B,EG] | [B,F]2 [B,F] E2 [EA-] | [EA]2 G/F/ [EG]2 [FA]/[GB]/ | %102
"^Forte"!f! [EAc]3 [^DF]2 [B,EB] | A/G/ F2 !fermata!E3 ||[M:4/4]"^Largo."!mp! [^DFB]3 [EA] F2 E2 | %105
 ^D2 E2 ^C2 =D2 | B,2- B,C A,2 [A,F]2- | [A,F]2 E4 ^D2 | z8 | B2 c2 [A-c]4 | [DB-]4 B2 P^c2 | %111
 !fermata![Fd]8 ||!f!"^Arioso." B3 G A3 F | G2 A2 G4 | [B,EG]4 [^CE]2 [B,D][CE] | F2 E2 F4 | %116
 F2 B2 B4 | G2 A2 B2 F2 | E2 =D2 C2 =G2 | F4 G2 GA | B3 G A3 [Bd-] | dc c2 B4 | B4 E2 [A,D]>[^CE] | %123
 F2 E2 [DF]4 | F2 G>A B>c B2 | [Gc]2 [FB]>[EA] [^DB]>[EA] [^DF]2 | [B,E]2 D2 C2 =G2 | %127
 F G2 F G2 [DG][FA] | B3 G A3 F | G2 A2 [CG]4- | [CG]4 [^CE]2 [B,D]>[CE] | [D-F]2 E2 F4 | B4- B4 | %133
 [Gc]2 A2 B2 F2 | [B,E]2 [A,D][B,E] =CF =G2 | F G2 F G2 [DG][FA] | B3 G A3 F | G2 A2 [CG]4- | %138
 [CG]4 [^CE]2 [B,D]>[CE] | [D-F]2 E2 F4 | [FB-]4 B4 | G2 A2 B2 F2 | [B,E]2 AB AE =G2 | %143
 F G2 F G2 [DG][FA] | BABG AGAF | GFGA G4 | A2 B2 ^c2 dc | d3 ^c [Ad]4 | [FBd]4 [GB]4- | %149
 B2 B>A B2 [FB^d]2 | e2 =d2- dc- cB- | BB A2 B2 GA | Be- ed- dc- cB- | %153
 [FB][EG-A] [DA]2 !fermata![DG]4 |] %154
V:5
 G,4 G,4- | G,2 F,E, F,4 | !fermata!G,8 || z G, F,D, B,,G,, z G, | G,2 z G, F,2 G,>F, | %5
 E,G, F,>E, ^D,3 D, | E,2 =D,2 ^C,3 C, | D,2 =C,2 B,,2 C,D, | G,,G,/F,/ E,>D, G,G,/E,/ A,A,, | %9
 D,2 z F, G, z z ^G, | A, z z ^A, B, z z B, | C z z ^C D z z ^D | EG, A,E, F,D, G,E, | %13
 D,F, E,G, B,B,, C,E, | G,G,, A,,C, B,,E, C,A,, | D,A,, B,,B, CA, DD, | G,G,, A,,2 B,,2 C,2 | %17
 D,3 D, G,E, A,2 | [D,A,] z ^C, z D,>C, B,,B,/A,/ | ^G, z E, z A,>=G, F,D, | G,D, E,2 F,F,, z F, | %21
 B,,2 z B,, E,,2 z E, | A,,2 z A,, D,,2 D>A, | B,^C B,>A, DB, EE, | A,A,, D,A,, B,,D,E,B,, | %25
 ^C,E, F,C, D,F, G,D, | E,G,A,E, F,A,B,F, | G,B, CG, A,C B,G, | F,A, G,E, D,F,E,C, | %29
 B,,D, C,E, D,G, E,A, | F,A, D,G, B,,^C, D,2 | G,,G, F,E, B,B,, A,,G,, | F,,F, E,D, A,A,, B,,^C, | %33
 D,>D ^CA, F,D, z D | D2 z D ^C2 D>C | B,D ^C>B, ^A,3 A, | B,2 A,2 [^G,B,]3 G, | A,2 G,2 F,2 E,2 | %38
 D,3 B,,/^C,/ D,B,, B,2 | A,,2 z ^C, D, z z ^D, | E, z z ^E, F, z z F, | G, z z ^G, A, z z ^A, | %42
 B,D, E,B,, ^C,A,, D,B,, | A,, z B,, z F,, z G,, z | D,, z E,, z F,, z G,, z | %45
 E,, z F,, z G,, z E, z | [D,,F,] z [G,B,] x [G,B,] x A,2 | G, z A,, z B,, z C, z | %48
 D, z E, z C, z D, z | z G,,F,,D,, D,B,, B,2 | A, z A, z A,2 x2 | A, x A,,2 B,,2 z B,, | %52
 E,,2 z E, A,,2 z A,, | D,,2 z D, G,,2 E>^D | EE, A,F, B,A, B,2 | z E,A,E, F,A,B,F, | %56
 ^G,B,^CG, A,CDA, | B,DEB, ^CE[I:staff -1]FC |[I:staff +1] DFGD EGFD | ^CE DB, A,C B,G, | %60
 F,A, G,B, A,D B,E | ^CEA,D ^A,B,D,E, | F,G, E,F, B,,2 z2 | z B,A,G, F,D, G,E, | %64
 A,G, A,A,, D,F,G,F, | E,G,F,D, z E,D,C, | B,,G,, C,A,, D,C, D,D,, | G,,G, F,E, D,E, D,=C, | %68
 B,,2 C,2 D4 | G,,2 z2 z4 || z4 D4 | C8 | !fermata!B,8 | z4 B,4 | [E,B,]8 | B,4 x4 | A,,4 B,,4 | %77
 x4 A,4 | !fermata![B,,B,]8 ||[M:6/8] z6 | z2 z z2"^Forte" E, | ^D,2 =D, ^C,2 =C, | %82
 B,,2 [B,,B,] G,2 z |"^Piano" E, z z E, z z | E, z z E, z E, | ^D,2 =D, ^C,2 =C, | %86
 B,2 [B,,B,] G,3 | A,,>B,,C, D,>C,B,,/A,,/ | G,,>A,,B,, C,>B,,A,, | D,B,,E, C, D,2 | %90
 G,,G,F, E,>F,G, | F,2 ^A,, B,,B,=A, | G,F,E,- E, F,2 | B,,B,A, G,2 F, | E, z z E, z z | %95
 E, z z E, z E, | ^D,2 =D, ^C,2 =C, | B,,2 [B,,B,] G,2 z |"^Piano" E, z z E, z z | E, z z E, z E, | %100
 ^D,2 =D, ^C,2 =C, | B,2 B, B,2 x | A,>B,C B,>A,G, | A,/B,/ B,2 G,3 ||[M:4/4] B,3 C A,4- | %105
 x4 A,4- | A,2 G,2 F,2 ^D,2 | x2 G,4 F,2 | z8 | E,4 F,4 | G,4 [E,G,]4 | !fermata![D,A,]8 || %112
 A,3 E, F,3 D, | E,2 F,2 G,3 F, | E,>F,G,E, A,>G,F,E, | D,B,, G,,A,, D,,D,MD,>C, | %116
 B,,B,B,>A, G,>A, G,>F, | E,>E, D,>C, B,,>C, B,,>A,, | ^G,,2 F,,G,, A,,2 B,,^C, | %119
 D,3 D, G,,G,B,A, |"^Variat. 2." A,3 E, F,3 D, | E,2 F,2 G,3 F, | E,>F, G,>E, A,>G, F,>E, | %123
 D,B,, G,,A,, D,,D, MD,>=C, | B,,B, B,>A, G,>A, G,>F, | E,>E, D,>C, B,,>C, B,,>A,, | %126
 ^G,,2 F,,G,, A,,2 B,,^C, | D,3 D, G,,G, B,A, |"^Variat. 3." A,3 E, F,3 D, | E,2 F,2 G,3 F, | %130
 E,>F, G,>E, A,>G, F,>E, | D,B,,G,,A,, D,,D, MD,>=C, | B,,B, B,>A, G,>A, G,>F, | %133
 E,>E, D,>C, B,,>C, B,,>A,, | ^G,,2 F,,G,, A,,2 B,,^C, | D,3 D, G,,G, B,A, | %136
"^Variat. 4." A,3 E, F,3 D, | E,2 F,2 G,3 F, | E,>F, G,E, A,>G, F,>E, | D,B,,G,,A,, D,,D, MD,>=C, | %140
 B,,B, B,>A, G,>A, G,>F, | E,>E, D,>C, B,,>C, B,,>A,, | ^G,,2 F,,G,, A,,2 B,,^C, | %143
 D,3 D, G,,G, B,A, |"^Variat.5." G,F,G,E, F,E,F,D, | E,D,E,F, G,A,G,F, | E,F,G,E, A,G,F,E, | %147
 D,B,,G,,A,, D,,D,MD,>=C, | B,,B, MB,>A, G,A,G,F, | E,E, D,>C, B,,>C, B,,>A,, | %150
 ^G,,E,,F,,^G,, A,,2 B,,^C, | D,^C, D,2 G,,G, B,A, | G,E, F,B,, E,A,, B,,^C, | %153
 D,^C, D,2 !fermata!G,,4 |] %154
V:6
 x8 | x8 | C4 x4 || x D D2- D2 x2 | ^CD/E/ x2 A,2 G,D | GB A>G F4 | B,2 EF E4 | A,3 E D2 ED | %8
 D2 G>F EB/G/ FE | x8 | x8 | x8 | GG/F/ EG AF G2 | x8 | x8 | x8 | x8 | x2 F2 F/D/G G/F/E | %18
 x4 A,2 D2- | x4 ^CB,/C/ x2 | x2 G2 F2 x2 | x8 | x6 F2- | FE D>E FF A^G | E2 FE D FGF | %25
 E GA^G F ABF | G BcB A cdc | BG G2 E2 D2 | AF G2 =FAGE | D=F x6 | A2 FG DE [A,D]2 | x8 | %32
 A,2 B,D ^C2 DE | D2 E2 A2 x2 | x4 E2 F2 | DF E2 F2 E2 | ^D2 [DF]2 E2 =D2 | ^C=C x2 ED- D^C | %38
 D4 FD E2 | x8 | x8 | x8 | F2 GD E^C FD | x8 | x6 B,2 | x2 A,2 B,2 x2 | x8 | x2 C2 x2 E2 | x8 | %49
 x2 A,2- A,D x2 | x8 | x2 C2 x4 | x8 | x8 | G2 F2 ^D E2 ^D | x ^GAG F^CDC | B,DED ^CEFE | %57
 DFGF E^G AG | FABA GBAF | EG x2 =CE DG | AF G2- GF G2- | G2- GF FDFE- | ED- D^C x4 | x4 A,2 B,2 | %64
 x2 D^C D4 | x8 | D2 E2 A,B, A,2 | B,B AG FG [FA-]2 | AG AG FG- GF | x8 || x4 G4 | E8 | x8 | %73
 x4 F4- | F2 E2 E4 | x4 E2 D2 | E4 z4 | B,4 E4 | x8 ||[M:6/8] x6 | x6 | x3 E2 E | E2 ^D E2 x | x6 | %84
 x6 | x3 B, A,2 | x3 E3 | E3 D>DE/F/ | D3 C2 x | F2 G G2 F | G2 x4 | FDF F2 x | B,3- B,2 ^A, | x6 | %94
 x6 | x6 | x6 | x6 | x6 | x6 | x3 B, A,2 | x2 ^D x2 E | x6 | ^D/E/ ED x3 ||[M:4/4] x4 C4 | B,4 x4 | %106
 x8 | x2 B,6 | x8 | [EG]4 D4 | A2 MGF G4 | x8 || D2 E2- E2 D2- | DC- C2 B,4 | x8 | D2 D^C D4 | %116
 D2 ^D2 E4 | E2 F>E ^D4 | B,2 x4 DE | D4 B,2 DF | [DG]2 E2 E2 DF | G2 A2 G4 | G2 E2 ^C2 x2 | %123
 D2- D^C x4 | D2 D>F G>F G2 | x8 | x2 A,B, C2 DE | D2 x6 | D2 E2- E2 D2- | DC- C2 x4 | x8 | %131
 x2 D^C D4 | D2 G>F E4 | x2 F>E ^D4 | x6 DE | D2 x6 | D2 E2- E2 D2- | DC- C2 x4 | x8 | x2 D^C D4 | %140
 D2 ^D2 E4 | E2 F>E ^D4 | x2 D2 C2 DE | D x7 | D3 E E2 D2- | D2 C2 B,4 | GFEG E2 AG | AB- BA F4 | %148
 x8 | G2 F>E ^D2 x2 | [EB]^G AB E2 A=G | FG- GF G2 DF | G2 A2 G2 AG | x2 GF x4 |] %154
V:7
 x8 | x8 | x8 || x8 | x8 | x8 | x8 | x8 | x8 | x8 | x8 | x8 | x8 | x8 | x8 | x8 | x8 | x6 A,A,, | %18
 x8 | x8 | x8 | x8 | x8 | x8 | x8 | x8 | x8 | x8 | x8 | x8 | x8 | x8 | x8 | x8 | x8 | x8 | x8 | %37
 x8 | x6 E,2 | x8 | x8 | x8 | x8 | x8 | x8 | x6 A,, x | x2 G,, z E,, z F,, z | G,, x7 | x8 | %49
 x6 E,>D, | ^C, x A,, x D,>=C, B,,G,, | C,G,, x6 | x8 | x8 | x8 | x8 | x8 | x8 | x8 | x8 | x8 | %61
 x8 | x8 | x8 | x8 | x8 | x8 | x8 | x4 D,C, D,2 | x8 || x4 G,4 | x8 | x8 | x4 ^D,4 | x8 | %75
 G,,4 ^G,,4 | x8 | C,8 | x8 ||[M:6/8] x6 | x6 | x6 | x3 E,2 x | x6 | x6 | x6 | %86
 B,,2 x E,,!f!E,/"^Forte"=D,/C,/B,,/ | x6 | x6 | x6 | x6 | x6 | x6 | x6 | G, x5 | x6 | x6 | %97
 x3 E,2 x | x6 | x6 | x6 | B,,2 B,, E,EC | x6 | F,/E,/ B,,2 !fermata!E,3 ||[M:4/4] x8 | %105
 A,2 G,2- G,2 F,2- | F,2 E,2- E,2 x2 | E,4 B,,4 | x8 | x8 | x8 | x8 || x8 | x8 | x8 | x2 B,A, A,4 | %116
 x8 | x8 | x8 | x8 | x8 | x8 | x8 | x2 B,A, A,4 | x8 | x8 | x8 | x2 A,2 B,2 x2 | x8 | x8 | x8 | %131
 x8 | x8 | x8 | x8 | x2 A,2 B,2 x2 | x8 | x8 | x8 | x2 B,A, A,4 | x8 | x8 | x8 | x B,2 A, B,2 x2 | %144
 x8 | x8 | x8 | x8 | x8 | x8 | x8 | x8 | x8 | x4 B,4 |] %154
V:8
 x8 | x8 | x8 || x8 | x8 | x8 | x8 | x8 | x8 | x8 | x8 | x8 | x8 | x8 | x8 | x8 | x8 | x8 | x8 | %19
 x8 | x8 | x8 | x8 | x8 | x8 | x8 | x8 | x8 | x8 | x8 | x8 | x8 | x8 | x8 | x8 | x8 | x8 | x8 | %38
 x8 | x8 | x8 | x8 | x8 | x8 | x8 | x8 | x8 | x8 | x8 | x8 | x8 | x8 | x8 | x8 | x8 | x8 | x8 | %57
 x8 | x8 | x8 | x8 | x8 | x8 | x8 | x8 | x8 | x8 | x8 | D2 E2 x4 | x8 || x8 | x8 | x8 | x8 | x8 | %75
 x8 | ^C2 =C2 B,4- | x8 | x8 ||[M:6/8] x6 | x6 | x6 | x6 | x6 | x6 | x6 | x6 | x6 | x6 | x6 | x6 | %91
 x6 | x6 | x6 | x6 | x6 | x6 | x6 | x6 | x6 | x6 | x6 | x6 | x6 ||[M:4/4] x8 | x8 | x8 | x8 | x8 | %109
 x8 | x8 | x8 || x8 | x8 | x8 | x8 | x8 | x8 | x8 | x8 | x8 | x8 | x8 | x8 | x8 | x8 | x8 | x8 | %128
 x8 | x8 | x8 | x8 | x8 | x8 | x8 | x8 | x8 | x8 | x8 | x8 | x8 | x8 | x8 | x8 | x8 | x8 | x8 | %147
 F2 E2 x4 | x8 | x8 | x8 | x8 | x8 | x8 |] %154

